X:531
T:Julia
C:Colin Hume, 2011
L:1/4
M:2/2
R:Reel
Q:1/2=92
S:Colin Hume's website,  colinhume.com  - chords can also be printed below the stave.
%%MIDI chordname 7sus 0 5 7 10
%%MIDI ratio 3 1
K:G
P:A
%%MIDI program 68       % Oboe
%%MIDI gchord c3c
%%MIDI chordprog 48     % String Ensemble 1
%%MIDI chordvol 50
V:1
[| "G"d>c B2 | "Em"B>A G2 | "Am"Ac BA- | "D7"A2 GA | "Em"B>A G2 | "C"G>F E2 | "Am"A2 Bc | "D7"e2 d2 |
V:2
%%MIDI program 71       % Clarinet
%%MIDI control 10 127   % Right speaker
[| B>A G2 | G>F ED | C2 DE | F2 ED | G2 B,2 | E2 G,2 | C2 DE | F2 GA |
V:3 bass octave=-2
%%MIDI program 42       % Cello
%%MIDI control 10 0     % Left speaker
[| g3f | e3B | A2 Bc | d2 gf | e3d | c3B | A2E2 | D4 |
P:B
V:1
"G"d>c B2 | "Em"B>A G2 | "C"eg fe- | "Am"e2 dc | "G/D"B2 cB | "D"A2 BA | "C"GE G>A | "G"G4 ||
V:2
B>A G2 | G>F E2 | Ge dc- | c2 BA | G2 AG | F2 GF | EC EC | B,4 ||
V:3
g3f | e3d | c4 | A2 Bc | d4 | D2 EF | G2 C2 | G2 GA ||
P:C
V:1
"Bm"d>c B2 | "C"e>d c2 | "A7/C#"e2 ag | "D"f>e d2 | "Em"b2 ag | "C"fe fg | [I: MIDI=gchord c2c2] "D"a2 "B7/D#"f2 | "Em"g4 |
V:2
F3F | G3G | A3A | A>G F2 | g2 fe | dcde | fd BA | B4 |
V:3
B3B | c3c | ^c3c | d3d | e3B | c3c | d2 ^d2 | e2 d2 |
P:D
V:1
"C"g2 fe | "G/D"d>c B2 | "B7"c2 BA | "Em/C#"G>F E2 | "G/D"DG- GA | "/D"Bd- "C/D"d c | "G/D"B2 "D7"A3/G/ | "G"G4 |]
V:2
e2 dc | B>A G2 | A2 GF | E>B, G,2 | B,D- DF | GB- BA | G2 F2 | G4 |]
V:3
c4 | d4 | B4 | ^c4 | d3d | d3d | D2 D2 | G4 |]

